images/icons/v2/emoji-animal-outline-20.svg

<svg height="20" viewBox="0 0 20 20" width="20" xmlns="http://www.w3.org/2000/svg"><path d="m8 11c0 .8-.4 1.5-1 1.5s-1-.7-1-1.5.4-1.5 1-1.5 1 .7 1 1.5zm5-1.5c-.6 0-1 .7-1 1.5s.4 1.5 1 1.5 1-.7 1-1.5-.4-1.5-1-1.5zm6 3.5a4.951 4.951 0 0 1 -5 5 17.356 17.356 0 0 1 -1.8-.1 2.706 2.706 0 0 1 -3.8.5c-.2-.2-.4-.3-.5-.5-1 .1-1.8.1-1.9.1a4.892 4.892 0 0 1 -4.9-5.1 5.025 5.025 0 0 1 2-3.9 2.353 2.353 0 0 1 .2-.8c-.1-.1-.2-.1-.3-.2-1.8-1.8-2.1-4.3-.7-5.7a3.1 3.1 0 0 1 2.2-.9 5 5 0 0 1 3.5 1.6c.1.1.1.2.2.2a7.312 7.312 0 0 1 3.6 0c.1 0 .1-.1.2-.2a4.539 4.539 0 0 1 3.5-1.5 3.1 3.1 0 0 1 2.2.9c1.4 1.3 1.1 3.8-.7 5.6-.1.1-.2.1-.2.2.1.2.1.5.2.8a5.068 5.068 0 0 1 2 4zm-5.7-9.2a6.864 6.864 0 0 1 2.8 2.8 4.167 4.167 0 0 0 .8-1.8 2.026 2.026 0 0 0 -.4-1.5 1.493 1.493 0 0 0 -1-.3 4.194 4.194 0 0 0 -2.2.8zm-9.5 2.9a7.1 7.1 0 0 1 2.8-2.9 3.037 3.037 0 0 0 -2.1-.8 1.5 1.5 0 0 0 -1.1.4 1.792 1.792 0 0 0 -.4 1.4 4.065 4.065 0 0 0 .8 1.9zm13.7 6.3a3.46 3.46 0 0 0 -1.5-2.8l-.5-.4-.1-.6a5.374 5.374 0 0 0 -6.2-4.6 5.515 5.515 0 0 0 -4.7 4.6l-.1.6-.4.4a3.46 3.46 0 0 0 -1.5 2.8 3.543 3.543 0 0 0 3.5 3.5s.8 0 1.7-.1l.8-.1.5.7a1.165 1.165 0 0 0 1.7.3l.3-.3.5-.6.8.1a16.007 16.007 0 0 0 1.7.1 3.7 3.7 0 0 0 3.5-3.6zm-5.7 1.8a.945.945 0 0 0 -1-1h-1.5a.945.945 0 0 0 -1 1 1.039 1.039 0 0 0 .4.8l.9.7a.608.608 0 0 0 .8 0l.9-.7a1.02 1.02 0 0 0 .5-.8z"/></svg>

<svg xmlns="http://www.w3.org/2000/svg" width="20" height="20" viewBox="0 0 20 20"><title>emoji-animal-outline-20</title><path d="M8,11c0,.8-.4,1.5-1,1.5S6,11.8,6,11s.4-1.5,1-1.5S8,10.2,8,11Zm5-1.5c-.6,0-1,.7-1,1.5s.4,1.5,1,1.5,1-.7,1-1.5S13.6,9.5,13,9.5ZM19,13a4.951,4.951,0,0,1-5,5h0a17.356,17.356,0,0,1-1.8-.1,2.706,2.706,0,0,1-3.8.5c-.2-.2-.4-.3-.5-.5-1,.1-1.8.1-1.9.1H6a4.892,4.892,0,0,1-4.9-5.1A5.025,5.025,0,0,1,3.1,9a2.353,2.353,0,0,1,.2-.8c-.1-.1-.2-.1-.3-.2C1.2,6.2.9,3.7,2.3,2.3a3.1,3.1,0,0,1,2.2-.9A5,5,0,0,1,8,3c.1.1.1.2.2.2a7.312,7.312,0,0,1,3.6,0c.1,0,.1-.1.2-.2a4.539,4.539,0,0,1,3.5-1.5,3.1,3.1,0,0,1,2.2.9C19.1,3.7,18.8,6.2,17,8c-.1.1-.2.1-.2.2.1.2.1.5.2.8A5.068,5.068,0,0,1,19,13ZM13.3,3.8a6.864,6.864,0,0,1,2.8,2.8,4.167,4.167,0,0,0,.8-1.8,2.026,2.026,0,0,0-.4-1.5,1.493,1.493,0,0,0-1-.3,4.194,4.194,0,0,0-2.2.8ZM3.8,6.7A7.1,7.1,0,0,1,6.6,3.8h0A3.037,3.037,0,0,0,4.5,3a1.5,1.5,0,0,0-1.1.4A1.792,1.792,0,0,0,3,4.8,4.065,4.065,0,0,0,3.8,6.7ZM17.5,13A3.46,3.46,0,0,0,16,10.2l-.5-.4-.1-.6A5.374,5.374,0,0,0,9.2,4.6,5.515,5.515,0,0,0,4.5,9.2l-.1.6-.4.4A3.46,3.46,0,0,0,2.5,13,3.543,3.543,0,0,0,6,16.5s.8,0,1.7-.1l.8-.1L9,17a1.165,1.165,0,0,0,1.7.3L11,17l.5-.6.8.1a16.007,16.007,0,0,0,1.7.1A3.7,3.7,0,0,0,17.5,13Zm-5.7,1.8a.945.945,0,0,0-1-1H9.3a.945.945,0,0,0-1,1,1.039,1.039,0,0,0,.4.8l.9.7a.608.608,0,0,0,.8,0l.9-.7A1.02,1.02,0,0,0,11.8,14.8Z"/></svg>
